X: 1
T: March Of The Men Of Harlech, The
Z: ceolachan
S: https://thesession.org/tunes/13597#setting24099
R: barndance
M: 4/4
L: 1/8
K: Gmaj
|: D/E/F |G3 F E3 F2 | G2 A2 B2 G2 | c2 cB A3 G | F2 E2 F2 D2 !
G3 F E2 F2 | G3 A Be- e2 | dB- B2 A3 G | G4- G2 :|
|: F>G |A3 G F2 G2 | A2 A2- A2 z2 | d2 dc B3 c | d2 d2- d2 z2 |
d3 c B2 Bc | dedc BABc | d2 dc B3 c | d2 d2- d2 zB |
e2 e2 d3 d | c2 c2 B3 B | A2 cB A2 AG | F2 E2 FD- D2 |
G3 F E2 EF | G2 A2 Be- e2 | dB- B2 A3 G | G4- G2 :|
